digital/Imbassy-X-Files/65ef0811cc67439994568a45/65ef0811cc67439994569447_dcg.svg

<svg fill="none" height="66" viewBox="0 0 195 66" width="195" xmlns="http://www.w3.org/2000/svg" xmlns:xlink="http://www.w3.org/1999/xlink"><clipPath id="a"><path d="m.679688.947998h193.914v64.1039h-193.914z"/></clipPath><g clip-path="url(#a)" fill="#fff"><path d="m92.8194 54.4h10.5436v-.0067h5.805v-23.3071h-11.6098v11.6973h-4.7388c-3.1032.0013-6.0799-1.2298-8.2756-3.4227s-3.4307-5.168-3.4334-8.2712c.0023-3.1035 1.237-6.079 3.4328-8.2723 2.1958-2.1932 5.1727-3.4246 8.2762-3.4232v-11.61822c-12.8911 0-23.3389 10.43432-23.3389 23.31032 0 12.8761 10.4478 23.3138 23.3389 23.3138z"/><path clip-rule="evenodd" d="m66.9941 54.393c-6.185.0027-12.1178-2.4513-16.4936-6.8224-4.3759-4.3711-6.8363-10.3013-6.8403-16.4862.0044-6.1847 2.4651-12.1145 6.8409-16.4852 4.3757-4.3707 10.3083-6.82453 16.493-6.82185v11.61815c-6.4658 0-11.704 5.2315-11.704 11.6905 0 6.4591 5.2382 11.6905 11.704 11.6905z" fill-rule="evenodd"/><path d="m17.0282 7.77734h-10.54362v.00673h-5.804892v23.30873h11.609812v-11.6989h4.7387c3.1035-.0014 6.0805 1.23 8.2763 3.4232 2.1957 2.1932 3.4305 5.1688 3.4327 8.2723-.0027 3.1032-1.2376 6.0783-3.4333 8.2712-2.1958 2.1929-5.1725 3.424-8.2757 3.4227v11.6181c12.8912 0 23.339-10.4343 23.339-23.3103 0-12.8761-10.4478-23.31376-23.339-23.31376zm104.4848 0h4.555c3.762 0 6.179 2.78306 6.179 6.59696 0 3.8138-2.417 6.5784-6.179 6.5784h-4.555zm4.463 11.75606c2.766 0 4.463-2.0633 4.463-5.1776 0-3.1144-1.697-5.16087-4.463-5.16087h-2.766v10.33677zm7.912-11.75606h1.863v2.06333h-1.863zm.092 3.68436h1.66v9.4893h-1.66zm3.616 9.8223h1.696c.296 1.1048 1.125 1.6395 2.583 1.6395 1.383 0 2.639-.681 2.639-2.635v-1.2343c-.738 1.1973-1.845 1.7135-3.099 1.7135-2.287 0-4.151-2.0263-4.151-4.8094 0-2.7645 1.864-4.7354 4.151-4.7354 1.254 0 2.47.5886 3.099 1.6581v-1.4193h1.66v8.7881c0 2.9663-2.121 4.0342-4.354 4.0342-2.38.0016-3.965-1.1234-4.223-3.0017zm4.167-1.8986c1.715 0 2.84-1.4377 2.84-3.4271 0-2.0078-1.125-3.3531-2.84-3.3531-1.697 0-2.803 1.3453-2.803 3.3531 0 1.9911 1.106 3.4271 2.803 3.4271zm6.474-11.60806h1.863v2.06333h-1.863zm.092 3.68436h1.66v9.4893h-1.66zm4.517 7.278v-5.9142h-1.512v-1.3638h1.088c.258 0 .424-.1648.424-.4052v-2.72591h1.641v3.13281h2.086v1.3638h-2.086v5.6569c0 .8105.221 1.1048.977 1.1048h1.347v1.3638h-1.824c-1.458.0017-2.139-.6239-2.139-2.2096zm4.926-.3498c0-2.2113 1.9-2.709 3.449-2.9108l2.048-.2758c.756-.111.903-.5331.903-.977 0-.9215-.627-1.6766-2.048-1.6766s-2.232.6643-2.378 1.8229h-1.66c.204-1.8985 1.734-3.1513 4.002-3.1513 2.526 0 3.725 1.2528 3.725 3.3901v4.6059c0 .2035.165.3683.388.3683h.591v1.3637h-1.125c-.903 0-1.403-.4792-1.403-1.1603v-.2404c-.829 1.2343-2.14 1.6395-3.319 1.6395-1.936.0034-3.17-1.1199-3.17-2.7965zm3.597 1.4748c1.696 0 2.803-1.2528 2.803-3.1126v-.6643c-.313.1648-.646.2203-.959.2758l-1.678.2573c-1.439.2203-2.048.7365-2.048 1.695.002.9771.74 1.5488 1.882 1.5488zm6.896-12.08736h1.66v13.17366h-1.66zm-47.435 23.66686c0-4.1098 2.454-6.8357 5.958-6.8357 3.062 0 4.979 1.8985 5.368 4.7354h-1.791c-.333-1.7321-1.44-3.2791-3.577-3.2791-2.618 0-4.185 2.3038-4.185 5.3626s1.622 5.3794 4.185 5.3794c2.232 0 3.449-1.6025 3.708-3.3363h1.789c-.535 3.2069-2.618 4.7909-5.495 4.7909-3.562.0017-5.958-2.7074-5.958-6.8155zm13.039 3.0403v-5.9511h1.66v5.8402c0 1.658.942 2.5072 2.306 2.5072 1.346 0 2.562-1.1788 2.562-2.8755v-5.4719h1.66v9.4892h-1.66v-1.4747c-.627 1.1418-1.807 1.7135-3.154 1.7135-1.973 0-3.374-1.3083-3.374-3.7769z"/><path d="m144.145 28.5336h1.659v1.4748c.591-1.162 1.495-1.5858 2.602-1.5858h.534v1.5656h-.664c-1.512 0-2.47.94-2.47 2.8923v5.1407h-1.66v-9.4876z"/><path d="m150.34 28.5336h1.66v1.4748c.59-1.162 1.495-1.5858 2.601-1.5858h.535v1.5656h-.664c-1.512 0-2.471.94-2.471 2.8923v5.1407h-1.659v-9.4876z"/><path d="m155.616 33.2876c0-2.8554 1.752-4.9944 4.537-4.9944 2.361 0 4.426 1.3268 4.206 5.4165h-7.028c.111 1.732.922 3.2253 2.822 3.2253 1.384 0 2.083-.6996 2.416-1.7321h1.679c-.461 1.8431-1.88 3.0589-4.095 3.0589-2.786 0-4.539-2.1189-4.539-4.9759zm7.12-.8291c-.111-1.9338-.996-2.8368-2.581-2.8368-1.734 0-2.582 1.2528-2.785 2.8368zm3.188-3.9248h1.66v1.4378c.627-1.0494 1.826-1.6783 3.208-1.6783 2.065 0 3.505 1.2898 3.505 3.8139v5.9159h-1.66v-5.8234c0-1.6581-.942-2.5241-2.342-2.5241-1.475 0-2.711 1.1973-2.711 2.8755v5.472h-1.66zm9.848 4.7539c0-2.8369 1.789-4.9944 4.574-4.9944 2.177 0 3.761 1.3268 4.076 3.5011h-1.678c-.276-1.3268-1.199-2.1373-2.417-2.1373-1.972 0-2.84 1.7135-2.84 3.6121 0 1.8985.868 3.6289 2.84 3.6289 1.236 0 2.065-.6811 2.417-1.991h1.659c-.349 2.0078-1.824 3.3531-4.076 3.3531-2.764.0017-4.555-2.1357-4.555-4.9725zm11.527 6.5044c.59 0 .866-.111 1.088-.681l.479-1.2713-3.835-9.3043h1.787l2.859 7.2056 2.655-7.2056h1.734l-4.261 11.1473c-.461 1.2158-1.162 1.4748-2.286 1.4748h-1.863v-1.3638h1.643zm-66.467 8.7242c0-4.1099 2.509-6.8358 6.067-6.8358 3.079 0 4.961 1.8986 5.349 4.7169h-1.789c-.257-1.695-1.512-3.2606-3.56-3.2606-2.673 0-4.298 2.3038-4.298 5.3626 0 3.0589 1.66 5.3795 4.278 5.3795 1.863 0 3.669-1.0695 3.891-4.0897h-4.241v-1.4176h5.866v6.7248h-1.568v-2.0634c-.829 1.4008-2.194 2.3038-4.278 2.3038-3.208-.0016-5.717-2.709-5.717-6.8189zm13.851-2.9126h1.66v1.4748c.59-1.1603 1.495-1.5858 2.602-1.5858h.534v1.5656h-.664c-1.512 0-2.47.94-2.47 2.8924v5.1406h-1.66v-9.4876zm5.276 4.7539c0-2.8368 1.696-4.9943 4.574-4.9943 2.877 0 4.573 2.1558 4.573 4.9943 0 2.8386-1.696 4.9742-4.573 4.9742-2.878 0-4.574-2.1373-4.574-4.9742zm4.572 3.6104c2.065 0 2.859-1.7875 2.859-3.6289 0-1.8615-.794-3.6121-2.859-3.6121-2.085 0-2.859 1.7506-2.859 3.6121 0 1.8431.774 3.6289 2.859 3.6289zm6.049-2.4114v-5.9512h1.659v5.8402c0 1.6581.942 2.5073 2.306 2.5073 1.347 0 2.563-1.1788 2.563-2.8756v-5.4719h1.659v9.4893h-1.659v-1.4748c-.628 1.1418-1.808 1.7136-3.155 1.7136-1.971 0-3.373-1.3083-3.373-3.7769zm10.272-5.9529h1.66v1.4378c.337-.5313.807-.9653 1.363-1.2594.557-.294 1.18-.4378 1.809-.4172 2.305 0 4.15 2.0264 4.15 5.0112 0 2.9849-1.845 4.9557-4.15 4.9557-1.327 0-2.491-.5717-3.172-1.6581v4.5505h-1.66zm4.426 8.3475c1.808 0 2.841-1.4933 2.841-3.5734s-1.035-3.6289-2.841-3.6289c-1.789 0-2.84 1.5471-2.84 3.6121s1.051 3.5902 2.84 3.5902z"/></g></svg>

<svg width="195" height="66" viewBox="0 0 195 66" fill="none" xmlns="http://www.w3.org/2000/svg">
<g clip-path="url(#clip0_6993_42204)">
<path d="M92.8194 54.4H103.363V54.3933H109.168V31.0862H97.5582V42.7835H92.8194C89.7162 42.7848 86.7395 41.5537 84.5438 39.3608C82.3481 37.1679 81.1131 34.1928 81.1104 31.0896C81.1127 27.9861 82.3474 25.0106 84.5432 22.8173C86.739 20.6241 89.7159 19.3927 92.8194 19.3941V7.77588C79.9283 7.77588 69.4805 18.2102 69.4805 31.0862C69.4805 43.9623 79.9283 54.4 92.8194 54.4Z" fill="white"/>
<path fill-rule="evenodd" clip-rule="evenodd" d="M66.9941 54.393C60.8091 54.3957 54.8763 51.9417 50.5005 47.5706C46.1246 43.1995 43.6642 37.2693 43.6602 31.0844C43.6646 24.8997 46.1253 18.9699 50.5011 14.5992C54.8768 10.2285 60.8094 7.77467 66.9941 7.77735V19.3955C60.5283 19.3955 55.2901 24.627 55.2901 31.086C55.2901 37.5451 60.5283 42.7765 66.9941 42.7765V54.393Z" fill="white"/>
<path d="M17.0282 7.77734H6.48458V7.78407H0.679688V31.0928H12.2895V19.3939H17.0282C20.1317 19.3925 23.1087 20.6239 25.3045 22.8171C27.5002 25.0103 28.735 27.9859 28.7372 31.0894C28.7345 34.1926 27.4996 37.1677 25.3039 39.3606C23.1081 41.5535 20.1314 42.7846 17.0282 42.7833V54.4014C29.9194 54.4014 40.3672 43.9671 40.3672 31.0911C40.3672 18.215 29.9194 7.77734 17.0282 7.77734ZM121.513 7.77734H126.068C129.83 7.77734 132.247 10.5604 132.247 14.3743C132.247 18.1881 129.83 20.9527 126.068 20.9527H121.513V7.77734ZM125.976 19.5334C128.742 19.5334 130.439 17.4701 130.439 14.3558C130.439 11.2414 128.742 9.19493 125.976 9.19493H123.21V19.5317L125.976 19.5334ZM133.888 7.77734H135.751V9.84067H133.888V7.77734ZM133.98 11.4617H135.64V20.951H133.98V11.4617ZM137.596 21.284H139.292C139.588 22.3888 140.417 22.9235 141.875 22.9235C143.258 22.9235 144.514 22.2425 144.514 20.2885V19.0542C143.776 20.2515 142.669 20.7677 141.415 20.7677C139.128 20.7677 137.264 18.7414 137.264 15.9583C137.264 13.1938 139.128 11.2229 141.415 11.2229C142.669 11.2229 143.885 11.8115 144.514 12.881V11.4617H146.174V20.2498C146.174 23.2161 144.053 24.284 141.82 24.284C139.44 24.2856 137.855 23.1606 137.597 21.2823L137.596 21.284ZM141.763 19.3854C143.478 19.3854 144.603 17.9477 144.603 15.9583C144.603 13.9505 143.478 12.6052 141.763 12.6052C140.066 12.6052 138.96 13.9505 138.96 15.9583C138.96 17.9494 140.066 19.3854 141.763 19.3854ZM148.237 7.77734H150.1V9.84067H148.237V7.77734ZM148.329 11.4617H149.989V20.951H148.329V11.4617ZM152.846 18.7397V12.8255H151.334V11.4617H152.422C152.68 11.4617 152.846 11.2969 152.846 11.0565V8.33059H154.487V11.4634H156.573V12.8272H154.487V18.4841C154.487 19.2946 154.708 19.5889 155.464 19.5889H156.811V20.9527H154.987C153.529 20.9544 152.848 20.3288 152.848 18.7431L152.846 18.7397ZM157.772 18.3899C157.772 16.1786 159.672 15.6809 161.221 15.4791L163.269 15.2033C164.025 15.0923 164.172 14.6702 164.172 14.2263C164.172 13.3048 163.545 12.5497 162.124 12.5497C160.703 12.5497 159.892 13.214 159.746 14.3726H158.086C158.29 12.4741 159.82 11.2213 162.088 11.2213C164.614 11.2213 165.813 12.4741 165.813 14.6114V19.2173C165.813 19.4208 165.978 19.5856 166.201 19.5856H166.792V20.9493H165.667C164.764 20.9493 164.264 20.4701 164.264 19.789V19.5486C163.435 20.7829 162.124 21.1881 160.945 21.1881C159.009 21.1915 157.775 20.0682 157.775 18.3916L157.772 18.3899ZM161.369 19.8647C163.065 19.8647 164.172 18.6119 164.172 16.7521V16.0878C163.859 16.2526 163.526 16.3081 163.213 16.3636L161.535 16.6209C160.096 16.8412 159.487 17.3574 159.487 18.3159C159.489 19.293 160.227 19.8647 161.369 19.8647ZM168.265 7.77734H169.925V20.951H168.265V7.77734ZM120.83 31.4442C120.83 27.3344 123.284 24.6085 126.788 24.6085C129.85 24.6085 131.767 26.507 132.156 29.3439H130.365C130.032 27.6118 128.925 26.0648 126.788 26.0648C124.17 26.0648 122.603 28.3686 122.603 31.4274C122.603 34.4862 124.225 36.8068 126.788 36.8068C129.02 36.8068 130.237 35.2043 130.496 33.4705H132.285C131.75 36.6774 129.667 38.2614 126.79 38.2614C123.228 38.2631 120.832 35.554 120.832 31.4459L120.83 31.4442ZM133.869 34.4845V28.5334H135.529V34.3736C135.529 36.0316 136.471 36.8808 137.835 36.8808C139.181 36.8808 140.397 35.702 140.397 34.0053V28.5334H142.057V38.0226H140.397V36.5479C139.77 37.6897 138.59 38.2614 137.243 38.2614C135.27 38.2614 133.869 36.9531 133.869 34.4845Z" fill="white"/>
<path d="M144.145 28.5336H145.804V30.0084C146.395 28.8464 147.299 28.4226 148.406 28.4226H148.94V29.9882H148.276C146.764 29.9882 145.806 30.9282 145.806 32.8805V38.0212H144.146V28.5336H144.145Z" fill="white"/>
<path d="M150.34 28.5336H152V30.0084C152.59 28.8464 153.495 28.4226 154.601 28.4226H155.136V29.9882H154.472C152.96 29.9882 152.001 30.9282 152.001 32.8805V38.0212H150.342V28.5336H150.34Z" fill="white"/>
<path d="M155.616 33.2876C155.616 30.4322 157.368 28.2932 160.153 28.2932C162.514 28.2932 164.579 29.62 164.359 33.7097H157.331C157.442 35.4417 158.253 36.935 160.153 36.935C161.537 36.935 162.236 36.2354 162.569 35.2029H164.248C163.787 37.046 162.368 38.2618 160.153 38.2618C157.367 38.2618 155.614 36.1429 155.614 33.2859L155.616 33.2876ZM162.736 32.4585C162.625 30.5247 161.74 29.6217 160.155 29.6217C158.421 29.6217 157.573 30.8745 157.37 32.4585H162.736ZM165.924 28.5337H167.584V29.9715C168.211 28.9221 169.41 28.2932 170.792 28.2932C172.857 28.2932 174.297 29.583 174.297 32.1071V38.023H172.637V32.1996C172.637 30.5415 171.695 29.6755 170.295 29.6755C168.82 29.6755 167.584 30.8728 167.584 32.551V38.023H165.924V28.5337ZM175.772 33.2876C175.772 30.4507 177.561 28.2932 180.346 28.2932C182.523 28.2932 184.107 29.62 184.422 31.7943H182.744C182.468 30.4675 181.545 29.657 180.327 29.657C178.355 29.657 177.487 31.3705 177.487 33.2691C177.487 35.1676 178.355 36.898 180.327 36.898C181.563 36.898 182.392 36.2169 182.744 34.907H184.403C184.054 36.9148 182.579 38.2601 180.327 38.2601C177.563 38.2618 175.772 36.1244 175.772 33.2876ZM187.299 39.792C187.889 39.792 188.165 39.681 188.387 39.111L188.866 37.8397L185.031 28.5354H186.818L189.677 35.741L192.332 28.5354H194.066L189.805 39.6827C189.344 40.8985 188.643 41.1575 187.519 41.1575H185.656V39.7937H187.299V39.792ZM120.832 48.5162C120.832 44.4063 123.341 41.6804 126.899 41.6804C129.978 41.6804 131.86 43.579 132.248 46.3973H130.459C130.202 44.7023 128.947 43.1367 126.899 43.1367C124.226 43.1367 122.601 45.4405 122.601 48.4993C122.601 51.5582 124.261 53.8788 126.879 53.8788C128.742 53.8788 130.548 52.8093 130.77 49.7891H126.529V48.3715H132.395V55.0963H130.827V53.0329C129.998 54.4337 128.633 55.3367 126.549 55.3367C123.341 55.3351 120.832 52.6277 120.832 48.5178V48.5162ZM134.683 45.6036H136.343V47.0784C136.933 45.9181 137.838 45.4926 138.945 45.4926H139.479V47.0582H138.815C137.303 47.0582 136.345 47.9982 136.345 49.9506V55.0912H134.685V45.6036H134.683ZM139.959 50.3575C139.959 47.5207 141.655 45.3632 144.533 45.3632C147.41 45.3632 149.106 47.519 149.106 50.3575C149.106 53.1961 147.41 55.3317 144.533 55.3317C141.655 55.3317 139.959 53.1944 139.959 50.3575ZM144.531 53.9679C146.596 53.9679 147.39 52.1804 147.39 50.339C147.39 48.4775 146.596 46.7269 144.531 46.7269C142.446 46.7269 141.672 48.4775 141.672 50.339C141.672 52.1821 142.446 53.9679 144.531 53.9679ZM150.58 51.5565V45.6053H152.239V51.4455C152.239 53.1036 153.181 53.9528 154.545 53.9528C155.892 53.9528 157.108 52.774 157.108 51.0772V45.6053H158.767V55.0946H157.108V53.6198C156.48 54.7616 155.3 55.3334 153.953 55.3334C151.982 55.3334 150.58 54.0251 150.58 51.5565ZM160.852 45.6036H162.512V47.0414C162.849 46.5101 163.319 46.0761 163.875 45.782C164.432 45.488 165.055 45.3442 165.684 45.3648C167.989 45.3648 169.834 47.3912 169.834 50.376C169.834 53.3609 167.989 55.3317 165.684 55.3317C164.357 55.3317 163.193 54.76 162.512 53.6736V58.2241H160.852V45.6036ZM165.278 53.9511C167.086 53.9511 168.119 52.4578 168.119 50.3777C168.119 48.2976 167.084 46.7488 165.278 46.7488C163.489 46.7488 162.438 48.2959 162.438 50.3609C162.438 52.4259 163.489 53.9511 165.278 53.9511Z" fill="white"/>
</g>
<defs>
<clipPath id="clip0_6993_42204">
<rect width="193.914" height="64.1039" fill="white" transform="translate(0.679688 0.947998)"/>
</clipPath>
</defs>
</svg>
